X: 11211
Q: "Bold and energetically."
M: C
L: 1/8
K: G
|:\
!f!d4 (B3c) | d2d2 G4 | (ABcd) c2B2 | B4 A4 |\
(Bcde) d2d2 | g4 d4 | BAGA B2A2 | "^Fin."G4 z4 H:|
e^def e2f2 | g4 e4 | gfe=d fed^c | d3e dcB"^D.C."c |]


